!!!OTL: N' MONTA HATS GREGNET
!!!ARE: Europa, Mitteleuropa, Deutschland
!!!SCT: E1043
!!!YEM: Copyright 1995, estate of Helmut Schaffrath.
**kern
*ICvox
*Ivox
*M3/4
*k[f#]
*G:
{4d
=1
8d
8b
4b
8a
8g
=2
8g
8f#
8f#
8e}
{4f#
=3
8f#
8cc
4cc
8b
8a
=4
8a
8g
8g
8f#}
{4g
=5
8g
8dd
4dd
8cc
8b
=6
8b
8a
8a
8g#}
{4a
=7
8a
8ee
4dd
8dd
8ee
=8
2b}
==
!!!AGN: Tanz - Lied, Laendler
!!!ONB: ESAC (Essen Associative Code) Database: ERK3
!!!AMT: simple triple
!!!AIN: vox
!!!EED: Helmut Schaffrath
!!!EEV: 1.0
*-
